svg/fluentui-system-icons/ic_fluent_text_bullet_list_square_clock_20_regular.svg

<svg width="20" height="20" viewBox="0 0 20 20" fill="none" xmlns="http://www.w3.org/2000/svg">
<path d="M5.75 3H14.25C15.7688 3 17 4.23122 17 5.75V9.59971C16.6832 9.43777 16.3486 9.30564 16 9.20703V5.75C16 4.7835 15.2165 4 14.25 4H5.75C4.7835 4 4 4.7835 4 5.75V14.25C4 15.2165 4.7835 16 5.75 16H9.20703C9.30564 16.3486 9.43777 16.6832 9.59971 17H5.75C4.23122 17 3 15.7688 3 14.25V5.75C3 4.23122 4.23122 3 5.75 3ZM9.5 10H11.3369C10.9338 10.2839 10.5705 10.6206 10.2572 11H9.5C9.22386 11 9 10.7761 9 10.5C9 10.2239 9.22386 10 9.5 10ZM6.75 8C7.16421 8 7.5 7.66421 7.5 7.25C7.5 6.83579 7.16421 6.5 6.75 6.5C6.33579 6.5 6 6.83579 6 7.25C6 7.66421 6.33579 8 6.75 8ZM7.5 10.25C7.5 10.6642 7.16421 11 6.75 11C6.33579 11 6 10.6642 6 10.25C6 9.83579 6.33579 9.5 6.75 9.5C7.16421 9.5 7.5 9.83579 7.5 10.25ZM7.5 13.25C7.5 13.6642 7.16421 14 6.75 14C6.33579 14 6 13.6642 6 13.25C6 12.8358 6.33579 12.5 6.75 12.5C7.16421 12.5 7.5 12.8358 7.5 13.25ZM9 7.5C9 7.22386 9.22386 7 9.5 7H13.5C13.7761 7 14 7.22386 14 7.5C14 7.77614 13.7761 8 13.5 8H9.5C9.22386 8 9 7.77614 9 7.5ZM19 14.5C19 16.9853 16.9853 19 14.5 19C12.0147 19 10 16.9853 10 14.5C10 12.0147 12.0147 10 14.5 10C16.9853 10 19 12.0147 19 14.5ZM14.5 12C14.2239 12 14 12.2239 14 12.5V14.5C14 14.7761 14.2239 15 14.5 15H16C16.2761 15 16.5 14.7761 16.5 14.5C16.5 14.2239 16.2761 14 16 14H15V12.5C15 12.2239 14.7761 12 14.5 12Z" fill="#212121"/>
</svg>

<svg xmlns="http://www.w3.org/2000/svg" width="20" height="20"><path d="M5.75 3h8.5A2.75 2.75 0 0 1 17 5.75V9.6a5.465 5.465 0 0 0-1-.393V5.75A1.75 1.75 0 0 0 14.25 4h-8.5A1.75 1.75 0 0 0 4 5.75v8.5c0 .966.784 1.75 1.75 1.75h3.457c.099.349.23.683.393 1H5.75A2.75 2.75 0 0 1 3 14.25v-8.5A2.75 2.75 0 0 1 5.75 3Zm3.75 7h1.837c-.403.284-.767.62-1.08 1H9.5a.5.5 0 0 1 0-1ZM6.75 8a.75.75 0 1 0 0-1.5.75.75 0 0 0 0 1.5Zm.75 2.25a.75.75 0 1 1-1.5 0 .75.75 0 0 1 1.5 0Zm0 3a.75.75 0 1 1-1.5 0 .75.75 0 0 1 1.5 0ZM9 7.5a.5.5 0 0 1 .5-.5h4a.5.5 0 0 1 0 1h-4a.5.5 0 0 1-.5-.5Zm10 7a4.5 4.5 0 1 1-9 0 4.5 4.5 0 0 1 9 0ZM14.5 12a.5.5 0 0 0-.5.5v2a.5.5 0 0 0 .5.5H16a.5.5 0 0 0 0-1h-1v-1.5a.5.5 0 0 0-.5-.5Z"/></svg>
